X:1
T:The Bitter Withy
M:4/4
L:1/4
K:C
 z2 z d| c B A d/2d/2| c B/2c/2 A B| d B/2G/2c/2-d/2 e| d3B/2-c/2|\
 d d c c| B B G A/2A/2| cd/2-d/2 AB/2-A/2| G3 z|
